Obsidian-SemiLight/actions/16s/go-next-context.svg

<svg viewBox="0 0 16 16" xmlns="http://www.w3.org/2000/svg"><path d="m0 2v12h1 9l5.292969-5.2929688.707031-.7070312-.707031-.7070312-5.292969-5.2929688h-9zm4 2h1v1h-1c-.55222 0-1 .44771-1 1v1c0 .38251-.13928.73504-.375 1 .23572.26497.375.6175.375 1v1c0 .55222.44771 1 1 1h1v1h-1c-1.10451 0-2-.89548-2-2v-1c0-.27615-.22386-.5-.5-.5h-.5v-1h.5c.27614 0 .5-.22384.5-.5v-1c0-1.10451.89548-2 2-2zm2 0h1c1.10452 0 2 .89549 2 2v1c0 .27616.22386.5.5.5h.5v1h-.5c-.27614 0-.5.22385-.5.5v1c0 1.10452-.89549 2-2 2h-1v-1h1c.55229 0 1-.44778 1-1v-1c0-.3825.13928-.73503.375-1-.23572-.26496-.375-.61749-.375-1v-1c0-.55229-.44778-1-1-1h-1z" fill="#4d4d4d"/></svg>

<svg xmlns="http://www.w3.org/2000/svg" viewBox="0 0 16 16">
  <defs id="defs3051">
    <style type="text/css" id="current-color-scheme">
      .ColorScheme-Text {
        color:#4d4d4d;
      }
      </style>
  </defs>
 <path style="fill:currentColor;fill-opacity:1;stroke:none" 
       d="M 0 2 L 0 14 L 1 14 L 10 14 L 15.292969 8.7070312 L 16 8 L 15.292969 7.2929688 L 10 2 L 1 2 L 0 2 z M 4 4 L 5 4 L 5 5 L 4 5 C 3.44778 5 3 5.44771 3 6 L 3 7 C 3 7.38251 2.86072 7.73504 2.625 8 C 2.86072 8.26497 3 8.6175 3 9 L 3 10 C 3 10.55222 3.44771 11 4 11 L 5 11 L 5 12 L 4 12 C 2.89549 12 2 11.10452 2 10 L 2 9 C 2 8.72385 1.77614 8.5 1.5 8.5 L 1 8.5 L 1 7.5 L 1.5 7.5 C 1.77614 7.5 2 7.27616 2 7 L 2 6 C 2 4.89549 2.89548 4 4 4 z M 6 4 L 7 4 C 8.10452 4 9 4.89549 9 6 L 9 7 C 9 7.27616 9.22386 7.5 9.5 7.5 L 10 7.5 L 10 8.5 L 9.5 8.5 C 9.22386 8.5 9 8.72385 9 9 L 9 10 C 9 11.10452 8.10451 12 7 12 L 6 12 L 6 11 L 7 11 C 7.55229 11 8 10.55222 8 10 L 8 9 C 8 8.6175 8.13928 8.26497 8.375 8 C 8.13928 7.73504 8 7.38251 8 7 L 8 6 C 8 5.44771 7.55222 5 7 5 L 6 5 L 6 4 z "
     class="ColorScheme-Text"
     />
</svg>
